img/call-icon.svg

<svg width="51" height="51" viewBox="0 0 51 51" fill="none" xmlns="http://www.w3.org/2000/svg">
<path d="M31.6458 11.9792C33.458 12.3327 35.2569 13.1319 36.5625 14.4375C37.8681 15.7431 38.6673 17.542 39.0208 19.3542M32.875 3.375C36.64 3.79326 40.028 5.61471 42.7083 8.29167C45.3887 10.9686 47.202 14.3605 47.625 18.125M47.6237 36.5051V43.1666C47.634 45.7131 45.3443 47.8395 42.7734 47.6077C20.5835 47.625 3.37515 30.2568 3.39252 8.21591C3.16097 5.65866 5.27686 3.37761 7.82008 3.37522H14.4948C15.5746 3.36461 16.6214 3.74621 17.4401 4.4489C19.7676 6.44667 21.2648 13.2274 20.6887 15.923C20.239 18.0276 18.1175 19.4999 16.6752 20.9394C19.8425 26.4985 24.4545 31.1014 30.0247 34.2624C31.467 32.823 32.9423 30.7057 35.051 30.2568C37.7561 29.6811 44.5805 31.1803 46.5702 33.5241C47.2758 34.3552 47.6507 35.4161 47.6237 36.5051Z" stroke="#C0B7E8" stroke-width="6" stroke-linecap="round" stroke-linejoin="round"/>
</svg>

<svg width="51" height="51" fill="none" xmlns="http://www.w3.org/2000/svg"><path d="M31.646 11.98c1.812.353 3.61 1.152 4.916 2.457 1.306 1.306 2.105 3.105 2.459 4.917M32.875 3.375c3.765.418 7.153 2.24 9.833 4.917 2.68 2.677 4.494 6.069 4.917 9.833m-.001 18.38v6.662c.01 2.546-2.28 4.672-4.85 4.44-22.19.018-39.399-17.35-39.381-39.391-.232-2.557 1.884-4.838 4.427-4.84h6.675a4.455 4.455 0 0 1 2.945 1.073c2.328 1.998 3.825 8.778 3.249 11.474-.45 2.105-2.572 3.577-4.014 5.016a35.563 35.563 0 0 0 13.35 13.323c1.442-1.439 2.917-3.556 5.026-4.005 2.705-.576 9.53.923 11.52 3.267a4.436 4.436 0 0 1 1.053 2.981z" stroke="#C0B7E8" stroke-width="6" stroke-linecap="round" stroke-linejoin="round"/></svg>
